packages/components/src/common/svgs/IconSparkleLarge.svg

<svg width="24" height="24" viewBox="0 0 24 24" xmlns="http://www.w3.org/2000/svg">
	<path d="M11.0367 3.92862C11.3828 2.85458 11.5558 2.31756 11.5887 2.26549C11.8123 1.9115 12.1877 1.9115 12.4113 2.26549C12.4442 2.31756 12.6172 2.85458 12.9633 3.92862C13.505 5.60999 14.3058 7.42501 15.4404 8.55958C16.575 9.69415 18.39 10.495 20.0714 11.0367C21.1454 11.3828 21.6824 11.5558 21.7345 11.5887C22.0885 11.8123 22.0885 12.1877 21.7345 12.4113C21.6824 12.4442 21.1454 12.6172 20.0714 12.9633C18.39 13.505 16.575 14.3058 15.4404 15.4404C14.3058 16.575 13.505 18.39 12.9633 20.0714C12.6172 21.1454 12.4442 21.6824 12.4113 21.7345C12.1877 22.0885 11.8123 22.0885 11.5887 21.7345C11.5558 21.6824 11.3828 21.1454 11.0367 20.0714C10.495 18.39 9.69415 16.575 8.55958 15.4404C7.42501 14.3058 5.60999 13.505 3.92862 12.9633C2.85458 12.6172 2.31756 12.4442 2.26549 12.4113C1.9115 12.1877 1.9115 11.8123 2.26549 11.5887C2.31756 11.5558 2.85458 11.3828 3.92862 11.0367C5.60999 10.495 7.42501 9.69415 8.55958 8.55958C9.69415 7.42501 10.495 5.60999 11.0367 3.92862Z" />
</svg>

<svg width="24" height="24" viewBox="0 0 24 24" xmlns="http://www.w3.org/2000/svg">
  <path d="M11.037 3.929c.346-1.074.519-1.611.552-1.664.223-.354.599-.354.822 0 .033.053.206.59.552 1.664.542 1.681 1.343 3.496 2.477 4.63 1.135 1.135 2.95 1.936 4.631 2.478 1.074.346 1.611.519 1.663.552.354.223.354.599 0 .822-.052.033-.589.206-1.663.552-1.681.542-3.496 1.343-4.63 2.477-1.135 1.135-1.936 2.95-2.478 4.631-.346 1.074-.519 1.611-.552 1.663-.223.354-.599.354-.822 0-.033-.052-.206-.589-.552-1.663-.542-1.681-1.343-3.496-2.477-4.63-1.135-1.135-2.95-1.936-4.631-2.478-1.074-.346-1.611-.519-1.664-.552-.354-.223-.354-.599 0-.822.053-.033.59-.206 1.664-.552 1.681-.542 3.496-1.343 4.63-2.477 1.135-1.135 1.936-2.95 2.478-4.631"/>
</svg>
